app/dist/common/images/aeroclean.svg

<svg height="18" viewBox="0 0 18 18" width="18" xmlns="http://www.w3.org/2000/svg"><path d="m0 0h18v18h-18z" fill="#475d76"/><path d="m7.64 9.6h-4.14c.15.42.42.77.77 1.02.35.24.76.38 1.19.38h4.14c-.15-.41-.42-.76-.77-1.01a2.06 2.06 0 0 0 -1.19-.38" fill="#8dacbf"/><path d="m5.14 11.5-.68 1.5h2.05l.64-1.5zm4.9-7.5h-2.08l-1.94 5h1.94l1-2.78h.04l2.4 6.78h2.11l-3.46-9z" fill="#fff"/></svg>

<!-- by TradingView --><svg xmlns="http://www.w3.org/2000/svg" width="18" height="18" viewBox="0 0 18 18"><path fill="#475D76" d="M0 0h18v18H0z"/><path d="M7.64 9.6H3.5c.15.42.42.77.77 1.02.35.24.76.38 1.19.38H9.6c-.15-.41-.42-.76-.77-1.01a2.06 2.06 0 0 0-1.19-.38" fill="#8DACBF"/><path d="M5.14 11.5L4.46 13h2.05l.64-1.5H5.14zM10.04 4H7.96L6.02 9h1.94l1-2.78H9L11.4 13h2.11l-3.46-9z" fill="#fff"/></svg>
